logo.svg

<svg width="500" height="500" fill="none" xmlns="http://www.w3.org/2000/svg">
    <g clip-path="url(#a)">
        <circle cx="250" cy="250" r="250" fill="#fff"/>
        <path fill-rule="evenodd" clip-rule="evenodd"
              d="M500 250c0 138.071-111.929 250-250 250S0 388.071 0 250 111.929 0 250 0s250 111.929 250 250Zm-391.934 71.299c4.519 0 6.778-.036 6.778-.107v.107c1.506 0 2.761.534 3.765 1.602 1.075.997 1.613 2.243 1.613 3.738 0 1.424-.538 2.67-1.613 3.738-1.004 1.068-2.259 1.567-3.765 1.496H56V348h58.844c5.952 0 11.008-2.065 15.168-6.195 4.231-4.201 6.347-9.22 6.347-15.059 0-5.91-2.116-10.965-6.347-15.166-4.16-4.201-9.216-6.302-15.168-6.302H77.6226c-1.3626 0-2.6177-.534-3.7651-1.602-1.0758-1.068-1.6136-2.314-1.6136-3.738 0-1.495.5378-2.741 1.6136-3.738 1.0757-1.068 2.3308-1.638 3.7651-1.709h59.1664v-16.02l-59.1664.106c-5.8808 0-10.9368 2.101-15.1681 6.302-4.2313 4.13-6.3469 9.149-6.3469 15.059 0 5.839 2.1156 10.859 6.3469 15.06 4.2313 4.201 9.2873 6.301 15.1681 6.301h30.4434Zm50.217 26.594v-26.594h37.651c5.953 0 11.009-2.065 15.168-6.195 4.232-4.201 6.347-9.22 6.347-15.059 0-5.91-2.115-10.965-6.347-15.166-4.159-4.201-9.215-6.337-15.168-6.408h-53.787v69.422h16.136Zm0-42.721v-10.681l37.651.107c1.506 0 2.761.534 3.765 1.602 1.076.997 1.614 2.243 1.614 3.738 0 1.424-.538 2.67-1.614 3.738-1.075 1.068-2.33 1.567-3.765 1.496h-37.651Zm123.711 16.02h-.029l-14.48-25.339c-1.883-1.57-4.243-1.949-6.357-1.137-.112.029-.221.061-.326.096-.211.078-.422.2-.633.365-.331.193-.652.419-.961.676l-20.279 34.765v17.168h-16.101v-21.574l21.838-37.168c1.864-3.275 4.375-5.838 7.53-7.69 3.156-1.922 6.813-2.883 10.973-2.883 4.231 0 7.853.818 10.865 2.456 3.084 1.638 5.701 4.379 7.853 8.224l21.622 37.061v21.574h-16.136v-17.409l-5.379-9.185Zm48.388 26.701h43.03v-16.02l-43.03.106c-1.434 0-2.689-.534-3.765-1.602s-1.614-2.349-1.614-3.845v-26.594c0-1.21.431-2.278 1.291-3.204.861-.997 1.793-1.638 2.797-1.922.215-.072.431-.107.646-.107l.645-.214h43.03v-16.02l-43.03.106c-5.881 0-10.937 2.101-15.168 6.302-4.231 4.13-6.347 9.149-6.347 15.059v26.701c0 5.839 2.116 10.859 6.347 15.06 4.231 4.129 9.287 6.194 15.168 6.194Zm64.587-16.02h48.409v16.02h-64.545V306.5h61.856v14.692h-45.72v10.681ZM442.733 293v-14.529h-63.9V293h63.9ZM84.3183 241.084h54.9807v-20.789l-54.9807.139c-1.8327 0-3.4363-.693-4.8108-2.079-1.3746-1.386-2.0618-3.049-2.0618-4.989v-34.509c0-1.571.5498-2.957 1.6494-4.158 1.0996-1.293 2.2909-2.125 3.5738-2.495.2749-.092.5498-.138.8247-.138l.8247-.277h54.9807V151l-54.9807.139c-7.5141 0-13.9744 2.725-19.3808 8.176-5.4065 5.359-8.1098 11.873-8.1098 19.542V213.505c0 7.576 2.7033 14.09 8.1098 19.541 5.4064 5.359 11.8667 8.038 19.3808 8.038Zm70.0177-8.038c5.406 5.359 11.866 8.038 19.38 8.038h48.109c7.606 0 14.066-2.679 19.381-8.038 5.406-5.451 8.109-11.965 8.109-19.541v-34.648c0-7.669-2.703-14.183-8.109-19.542-5.315-5.451-11.775-8.223-19.381-8.315l-48.109.139c-7.514 0-13.974 2.725-19.38 8.176-5.407 5.359-8.11 11.873-8.11 19.542V213.505c0 7.576 2.703 14.09 8.11 19.541Zm72.3-14.691c-1.283 1.294-2.887 1.94-4.811 1.94l-48.109.139h-.687c-1.558-.277-2.978-1.062-4.261-2.356-1.283-1.293-1.924-2.864-1.924-4.712v-34.509c0-1.201.366-2.31 1.099-3.326.825-1.017 1.741-1.802 2.749-2.356.55-.37 1.1-.647 1.65-.832.55-.277 1.008-.462 1.374-.554l48.109.138c.183 0 .366.046.55.139h.687c1.375.369 2.657 1.201 3.849 2.494 1.191 1.202 1.787 2.587 1.787 4.158v34.787c0 1.847-.688 3.464-2.062 4.85ZM256.161 151c0 .092 3.528.139 10.584.139h56.631c7.605 0 14.066 2.725 19.381 8.176 5.406 5.359 8.109 11.873 8.109 19.542 0 3.141-.458 6.144-1.374 9.008-.917 2.772-2.108 5.359-3.574 7.761 2.108 2.403 3.711 5.128 4.811 8.177 1.099 3.049 1.649 6.283 1.649 9.702v27.579H331.76v-27.718c0-1.663-.595-3.141-1.787-4.435-1.099-1.294-2.428-2.079-3.986-2.356H276.779v34.648h-20.618v-55.582h20.618v.007h47.284c1.833.092 3.436-.555 4.811-1.941 1.374-1.385 2.062-3.002 2.062-4.85 0-1.94-.688-3.557-2.062-4.851-1.375-1.386-2.978-2.079-4.811-2.079v-.138h-47.284v.028h-20.618V151Zm185.562 69.295h-61.854v-13.859h58.417V186h-79.035v55.084h82.472v-20.789ZM440.898 151v20.5h-81.647V151h81.647ZM211 196c0 6.627-5.373 12-12 12s-12-5.373-12-12 5.373-12 12-12 12 5.373 12 12Zm52.311 130.441c5.523 0 10-4.477 10-10s-4.477-10-10-10-10 4.477-10 10 4.477 10 10 10Z"
              fill="url(#b)"/>
    </g>
    <defs>
        <linearGradient id="b" x1="333.333" y1="153.986" x2="451.087" y2="409.42"
                        gradientUnits="userSpaceOnUse">
            <stop stop-color="#6C979D"/>
            <stop offset="1" stop-color="#24382E"/>
        </linearGradient>
        <clipPath id="a">
            <path fill="#fff" d="M0 0h500v500H0z"/>
        </clipPath>
    </defs>
</svg>

<svg width="500" height="500" viewBox="0 0 500 500" fill="none" xmlns="http://www.w3.org/2000/svg">
<g clip-path="url(#clip0_3_2)">
<circle cx="250" cy="250" r="250" fill="white"/>
<path fill-rule="evenodd" clip-rule="evenodd" d="M0 20C0 8.95432 8.9543 0 20 0H480C491.046 0 500 8.9543 500 20V480C500 491.046 491.046 500 480 500H20C8.95432 500 0 491.046 0 480V20ZM108.066 321.299C112.585 321.299 114.844 321.263 114.844 321.192V321.299C116.35 321.299 117.605 321.833 118.609 322.901C119.684 323.898 120.222 325.144 120.222 326.639C120.222 328.063 119.684 329.309 118.609 330.377C117.605 331.445 116.35 331.944 114.844 331.873H56V348H114.844C120.796 348 125.852 345.935 130.012 341.805C134.243 337.604 136.359 332.585 136.359 326.746C136.359 320.836 134.243 315.781 130.012 311.58C125.852 307.379 120.796 305.278 114.844 305.278H108.174H96.3407H83.4317H77.6226C76.26 305.278 75.0049 304.744 73.8575 303.676C72.7817 302.608 72.2439 301.362 72.2439 299.938C72.2439 298.443 72.7817 297.197 73.8575 296.2C74.9332 295.132 76.1883 294.562 77.6226 294.491H136.789V278.471L77.6226 278.577C71.7418 278.577 66.6858 280.678 62.4545 284.879C58.2232 289.009 56.1076 294.028 56.1076 299.938C56.1076 305.777 58.2232 310.797 62.4545 314.998C66.6858 319.198 71.7418 321.299 77.6226 321.299H84.8301H93.221H108.066ZM158.283 347.893V321.299H164.737H178.937H188.404H195.934C201.887 321.299 206.943 319.234 211.102 315.104C215.334 310.903 217.449 305.884 217.449 300.045C217.449 294.135 215.334 289.08 211.102 284.879C206.943 280.678 201.887 278.542 195.934 278.471H142.147V347.893H158.283ZM158.283 305.172V294.491L195.934 294.598C197.44 294.598 198.695 295.132 199.699 296.2C200.775 297.197 201.313 298.443 201.313 299.938C201.313 301.362 200.775 302.608 199.699 303.676C198.624 304.744 197.369 305.243 195.934 305.172H158.283ZM281.994 321.192H281.965L267.485 295.853C265.602 294.283 263.242 293.904 261.128 294.716C261.09 294.726 261.052 294.736 261.014 294.747C260.98 294.756 260.947 294.766 260.915 294.776C260.877 294.787 260.839 294.799 260.802 294.812C260.591 294.89 260.38 295.012 260.169 295.177C259.838 295.37 259.517 295.596 259.208 295.853L238.929 330.618V347.786H222.828V326.212L244.666 289.044C246.53 285.769 249.041 283.206 252.196 281.354C255.352 279.432 259.009 278.471 263.169 278.471C267.4 278.471 271.022 279.289 274.034 280.927C277.118 282.565 279.735 285.306 281.887 289.151L303.509 326.212V347.786H287.373V330.377L281.994 321.192ZM330.382 347.893H373.412V331.873L330.382 331.979C328.948 331.979 327.693 331.445 326.617 330.377C325.541 329.309 325.003 328.028 325.003 326.532V299.938C325.003 298.728 325.434 297.66 326.294 296.734C327.155 295.737 328.087 295.096 329.091 294.812C329.306 294.74 329.522 294.705 329.737 294.705L330.382 294.491H373.412V278.471L330.382 278.577C324.501 278.577 319.445 280.678 315.214 284.879C310.983 289.009 308.867 294.028 308.867 299.938V304.638V313.182V322.474V326.639C308.867 332.478 310.983 337.498 315.214 341.699C319.445 345.828 324.501 347.893 330.382 347.893ZM394.969 331.873H443.378V347.893H378.833V306.5H440.689V321.192H394.969V331.873ZM442.733 293V278.471H378.833V293H442.733ZM84.3183 241.084H139.299V220.295L84.3183 220.434C82.4856 220.434 80.882 219.741 79.5075 218.355C78.1329 216.969 77.4457 215.306 77.4457 213.366V178.857C77.4457 177.286 77.9955 175.9 79.0951 174.699C80.1947 173.406 81.386 172.574 82.6689 172.204C82.9438 172.112 83.2187 172.066 83.4936 172.066L84.3183 171.789H139.299V151L84.3183 151.139C76.8042 151.139 70.3439 153.864 64.9375 159.315C59.531 164.674 56.8277 171.188 56.8277 178.857V184.955V196.042V208.099V213.504C56.8277 221.081 59.531 227.595 64.9375 233.046C70.3439 238.405 76.8042 241.084 84.3183 241.084ZM154.336 233.046C159.742 238.405 166.202 241.084 173.716 241.084H221.825C229.431 241.084 235.891 238.405 241.206 233.046C246.612 227.595 249.315 221.081 249.315 213.504V208.099V196.042V184.955V178.857C249.315 171.188 246.612 164.674 241.206 159.315C235.891 153.864 229.431 151.092 221.825 151L173.716 151.139C166.202 151.139 159.742 153.864 154.336 159.315C148.929 164.674 146.226 171.188 146.226 178.857V184.955V196.042V208.099V213.504C146.226 221.081 148.929 227.595 154.336 233.046ZM226.636 218.355C225.353 219.649 223.749 220.295 221.825 220.295L173.716 220.434H173.304H173.029C171.471 220.157 170.051 219.371 168.768 218.078C167.485 216.784 166.844 215.214 166.844 213.366V178.857C166.844 177.656 167.21 176.547 167.943 175.531C168.768 174.514 169.684 173.729 170.692 173.175C171.242 172.805 171.792 172.528 172.342 172.343C172.892 172.066 173.35 171.881 173.716 171.789L221.825 171.927C222.008 171.927 222.191 171.973 222.375 172.066H223.062C224.437 172.435 225.719 173.267 226.911 174.56C228.102 175.762 228.698 177.147 228.698 178.718V213.504C228.698 215.352 228.01 216.969 226.636 218.355ZM256.161 151C256.161 151.092 259.689 151.139 266.745 151.139H290.25H310.868H323.376C330.981 151.139 337.442 153.864 342.757 159.315C348.163 164.674 350.866 171.188 350.866 178.857C350.866 181.998 350.408 185.001 349.492 187.865C348.575 190.637 347.384 193.224 345.918 195.626C348.026 198.028 349.629 200.754 350.729 203.803C351.828 206.852 352.378 210.086 352.378 213.504V241.084H331.76V213.366C331.76 211.703 331.165 210.224 329.973 208.931C328.874 207.637 327.545 206.852 325.987 206.575H318.015H301.383H284.477H276.779V241.223H256.161V185.641H276.779V185.648H324.063C325.896 185.74 327.499 185.093 328.874 183.707C330.248 182.322 330.936 180.705 330.936 178.857C330.936 176.916 330.248 175.3 328.874 174.006C327.499 172.62 325.896 171.927 324.063 171.927V171.789H276.779V171.817H256.161V151ZM441.723 220.295H379.869V206.436H438.286V186H359.251V241.084H441.723V220.295ZM440.898 151V171.5H359.251V151H440.898ZM211 196C211 202.627 205.627 208 199 208C192.373 208 187 202.627 187 196C187 189.373 192.373 184 199 184C205.627 184 211 189.373 211 196ZM263.311 326.441C268.834 326.441 273.311 321.964 273.311 316.441C273.311 310.918 268.834 306.441 263.311 306.441C257.788 306.441 253.311 310.918 253.311 316.441C253.311 321.964 257.788 326.441 263.311 326.441Z" fill="url(#paint0_linear_3_2)"/>
</g>
<defs>
<linearGradient id="paint0_linear_3_2" x1="333.333" y1="153.986" x2="451.087" y2="409.42" gradientUnits="userSpaceOnUse">
<stop stop-color="#6C979D"/>
<stop offset="1" stop-color="#24382E"/>
</linearGradient>
<clipPath id="clip0_3_2">
<rect width="500" height="500" fill="white"/>
</clipPath>
</defs>
</svg>
